X:891
T:The chanter's tune
T:The song of the chanter
R:March
O:Ireland
S:O'Neill's
B:O'Neill's 143
Z:Transcription, arrangement, chords:Mike Long
M:C|
L:1/8
K:G
e|\
"Am"A2A2 {A}e2dB|"Am"A2A2 "G"{A}g2fg|\
"Am"a2e2 {f}e2dB|"G"g2fg/a/ "(Em)"gedB|\
"Am"A2A2 {A}e2dB|
"Am"A2A2 "G"{A}g2fg|\
"Em"a2e2 {f}e2dB|"Am"A2{B}AG A3:|\
|:d|\
"Am"e2{f}ef g2fg|"Am"e>def "G"{f}g2fg|
"Am"a2e2 {f}e2dB|"G"g2fg/a/ "(Em)"gedB|\
"Am"A2{B}A2 e2dB|"Am"A2{B}A2 "G"g2fg|\
"Em"a2e2 {f}e2dB|"Am"A2{B}AG A3:|
